X:1
T:String Quartet No. 1 Op. 4
T:III
T:Alexander Zemlinsky
%%score 1 2 ( 3 4 ) ( 5 6 )
L:1/8
M:3/4
K:C
V:1 treble nm="Violin"
V:2 treble nm="Violin"
V:3 alto nm="Viola"
V:4 alto 
V:5 bass nm="Cello"
V:6 bass 
V:1
!f! a/ | .!tenuto!g2 !>!e15/4 B/4 | .d2 !>!A15/4 ^G/4 | (A2 GE C>E) | .!tenuto!B,2 !>!B,7/2!p! E/ | %5
!p! A2 A>(^G B>E) | A2- (A>c B>B) | (d7/2 e/ f>B) | (d7/2 e/4g/4 f>e) |!f! ([Aa]2!>(! gece)!>)! | %10
 (d2 cAFA) |!p! !tenuto!G2 !tenuto!E7/2 A/ | [B,G]4 [CE]2- | [CE] z E2 !fermata!z7/4!pp! a/4 | %14
 .!tenuto!g2 e15/4 B/4 | .d2 A15/4 ^G/4 | (A2 GEC7/4E/4) | B, z B,3 z |!p! (^c2 A3) (c | d2 ^c4) | %20
 (e2 ^c3) e | (^fe A3)!f! (a | ^g2) e3 (^c |!>(! (^f2) ^c3!>)! A) |!p! .!tenuto!d2 ^c3 A | %25
 E z E3 E | F2 E2 z (E | F2) z!<(! (F A2)!<)! | z!p! (A!>(! c3) (G!>)! | _B3) (F A2-) | %30
 A(E G(F) FE) ||[K:F] z2!p! (GF) (FE) | (CB,) (C(B,) CB,) | (^CDED) z =C | (=B,CDC) z C | %35
!<(! (DEEF A!<)!c) |!>(! (f=B cAFC)!>)! |!p! (AG)(GF) (EF) | (GF) (FC DC) |!p! D4!<(! d2!<)! | %40
 (a^f a g2 =f) | (e^c e (d2) c | e d2) ((^d fe-)) | (e egf) z (e |!f! (g2) f3) (^f | a2 g3) (^g | %46
 b2 afcA) | (^G2 A2- A/c/f/a/) | !>!b2 (_afc_A) | (3(FG_A-!<(! (3A=Bc- (3cef)!<)! | %50
 (_ae (f) a!>!f'=b) | z (_a !>!f'=b) z!ff! (a | !>!_a'=b) z2!ff! (_a=B) | z2 z2 z7/4!ff! f'/4 | %54
 .!tenuto!_e'2 c'15/4 g/4 | .!tenuto!b2 f15/4 e/4 | f2 (_ec_A7/4)c/4 | G z G3 z | %58
 z2 z7/4!ff! (_a/4 =B2) | z2 z3/2 (b/ _d2) | z2 z7/4 (c'/4 _e7/4)_e'/4 | %61
 c'7/4a/4 ^f7/4_e/4 c z3/4!f! g'/4 | .!tenuto!f'2 !>!d'15/4 a/4 | c'2 !>!g15/4 ^f/4 | %64
 (g2 fdB7/4)d/4 | A z D2 z!p! (^F | A2 G3) (^G | =B2 A3) (^A | c2 =BGDB,) | (G^C D2) z2 | %70
 z2 z7/4 (^c/4 E2) | z2 z7/4 (d/4 ^F2) | z2 z7/4 (a/4 ^c7/4)(e/4 | ^F2) (A^cea) | %74
!f! (d'2 ^c'!>(!ae^c)!>)! | (a^d e15/4) E/4 | ^D2 E2-!<(! E/A/^c/e/!<)! | %77
!f! (a^d) (3eBc (5:4:5A/E/A/c/e/ | (a^d) e/B/c/^G/ A/4E/4A/4c/4 e/4a/4c'/4e'/4 | %79
!ff! (a'/^d'/e'/=b/ (6:4:6c'/)^g/a/^d/e/=B/ (6:4:6c/^G/A/^D/E/=B,/ | C z E15/4 C/4 | %81
 D z F15/4 F/4 | G z ^c7/4c/4 d z | f7/4e/4 f z ^g7/4e/4 | f z !>!^g15/4 e/4 | %85
 f z !fermata!^g15/4!ff! a/4 ||[K:C] .g2 e15/4 B/4 | .d2 A15/4 ^G/4 | A2 ([B,G]E) C7/4E/4 | %89
 !>!A2 ([B,G]EC7/4)E/4 | c2 BG E7/4G/4 | c2 (BG) (E7/4e/4) | d2 [DB]15/4 e/4 | d2 [DB]3 g | %94
 f7/4e/4 ^d3 g | f7/4e/4 ^d2!ff! f2- | f2 (ecA>B) | (A2 GECE) |!p! B,2 B,7/2 (E/ | B,) z B,2 z2 || %100
[K:A] z6 |!p! (c2 A3) c | (d2 c4) | (e2 c3) (e | fe A4) | (f2 d3) (f || =g2 f4) | (f2 ^d3 f) | %108
 (a2 f3)!<(! f!<)! |!f! (f2 ecAc) | ([=F=f]4 d2) | ([Ac]4 C2) |!p! E6- | E2 z (E =F2) | %114
 z (=F E2) z (E | =F2) z2 (G2 ||[K:G] B2 A2) (^A2 | c2 B2) (^d2 | f2 e2) (^g2 | b2 ^a2) (c'2 | %120
 ^b2!f! d'2) (c'2 ||[K:A] b2 a2 =f2 | e2)!pp! (d2 B2 | B2 A2) (G2 | B2 A2) (^A2 | c2 B2 ^B2) | %126
!>(! d2 (c!>)!AFc) | c2 (BAEC) |!f! (A^D F3) G,- | G,(A,DFAd) |!pp! (a^d e4) |!ppp! A4 z2 |] %132
V:2
!f! c/ | .!tenuto!B2 (!>!A2 ^G7/4)G/4 | .!tenuto!A2 (G2 ^F7/4)F/4 | E2 (E2 C>)C | %4
 .!tenuto!A,2 !>!^G,3 z | z3/2!p! (E/ (D2) F>E) | z3/2 (E/ D2 F2) | z3/2 (B/ A2 c>B) | %8
 z3/2 (B/ A2 B>)B |!f! (c2 _B2 AG) | (F2 E2- ED) |!p! !tenuto!E2 !tenuto!C7/2 F/ | E4 E2- | %13
 E z B,2 !fermata!z7/4!pp! e/4 | .!tenuto!e2 B15/4 ^G/4 | !tenuto!A2 (G2 ^F7/4)=F/4 | %16
 (E2 E2 C7/4)C/4 | A, z ^G,3 z |!p! (E^F) (FE) (^DE) | (E^F (F)E) (^DE) | (GA) (AG) (^FG) | %21
 (GA) (AG) (G^F) |!f! (B^c BA EA) | (AB A^G ^C^F) |!p! A2 A3 E | D z (^C4 | C2) ^C2 z C- | %27
 C2 z!<(! (=C F2)!<)! | z!p! F!>(! (AGAG)!>)! | (FEFE) (ED) | (D(_D) DC) (C_B,) || %31
[K:F] z2!p! (B,A,) (A,G,) | (A,G,) (A,(G,) A,G,) | (B,A,^G,A,) z A, | (DCB,C) z B, | %35
!<(! (B,2 C2 F2)!<)! |!>(! (D2 F3)!>)! z |!p! (FE)(ED) (^CD) | (ED) (_DC =B,C) | D6- | D4 F2 | %41
 (GE G F2) (E | GF) (BA) BG | (AB) B=B (BF) |!f! (cd) dc (BA) | (d(e e)d (_d)c) | (Bd fcAF) | %47
 (F4 Ac) |!f! (!>!_dc c_AFC) | z2 (!>!_AE FA) | (3(FG_A-) (3ABc- (3cef | ((!>!_ae) fa)!ff! (c'e) | %52
 (f_a) z2!ff! (f_A) | z2 z2 z7/4!ff! c/4 | ._e2 !>!e2 (cC) | ._d2 c2 cC | (=B2 c2 F7/4)_A/4 | %57
 F z E!>!c C2 | z2 z3/2!ff! (F/4G/4 _A2) | z2 z3/2 (G/4_A/4 B2) | z2 z3/2 (A/4B/4 c7/4)^f/4 | %61
 A7/4_e/4 c7/4C/4 A z3/4!f! d/4 | .f2 !>!f7/4(d/4 D2) | _e2 d7/4(d/4 D2) | (^c2 d2 G7/4)B/4 | %65
 E z D2 z2 | z2 z7/4!pp! (g/4 =B2) | z2 z7/4 (a/4 c2) | z2 z7/4 (=b/4 d7/4)(g/4 | %69
 ^A7/4)(e/4 G7/4)=B/4 D2 | z7/4 A,/4 ^C4 | z7/4 (=B,/4 D4) | z7/4 (^C/4 E15/4) A/4 | %73
 ^B2 ^c15/4 c/4 |!f! d2!>(! ^c15/4 A/4!>)! | ^B2 ^c15/4 ^C/4 | !tenuto!^B,2 ^C15/4 E/4 | %77
!f! A7/4A/4 c7/4[Ae]/4 [Ae]7/4E/4 | A7/4A/4 c7/4[ca]/4 [ca]7/4[ca]/4 | %79
!ff! [ca]2 (6:4:6c/^G/A/^D/E/=B,/ x2 | A, z C15/4 A,/4 | =B, z D15/4 D/4 | E z G7/4E/4 F z | %83
 ^G7/4^c/4 d z f7/4c/4 | d z f15/4 ^c/4 | d z !fermata!d15/4!ff! e/4 || %86
[K:C] .!tenuto!e2 A15/4 ^G/4 | !tenuto!A2 G15/4 ^F/4 | E2 E2 A,7/4C/4 | !>!E2 !>!E2 A,7/4C/4 | %90
 A2 G2 C7/4E/4 | A2 G2 C7/4G/4 | ^F2 G15/4 G/4 | ^F2 G3 B | A7/4G/4 ^F3 B | A7/4G/4 ^F2!ff! (^G2 | %96
 B2 c2 ^F2-) | (F2 E2 C2) |!p! A,2 ^G,3 z | A, z ^G,2 z2 ||[K:A] z6 |!p! (EF) (FE) (^DE) | %102
 (EF) (FE) (^DE) | (=GA) (AG) (FG) | (=GA) (AG) (FG) | (A2 F3) (A || B2 A4) | (A2 F3 A) | %108
 (=c2 A3) A |!f! ([A-a]4 [Ae]2) | (e2 dA=FA) | (F2 ECA,C) | (G,4 B,2) | A,2 z (C =C2) | %114
 z (=C ^C2) z (C | =C2) z (D =FE || =F=GF(E) G^F | =GA GF) (=cB | =cdcB) (ed) | (=fe) (^fe) (=gf) | %120
 (gf)!f! (ga ba) || (e=f=gf) (Bc | dc)!pp! (=cB A=F) | (A2 =FE) D2 | C6 | G6 | (([=G_B]2 F4)) | %127
 ([FG]2!<(! E4) |!f! (^D2!<)! =D4) |!>(! D6!>)! |!pp! C6 |!ppp! C4 z2 |] %132
V:3
!f! C/ | .!tenuto!E2 (!>!F2 E7/4)D/4 | .!tenuto!F2 (!>!E2 D7/4)D/4 | C2 B,2- B,A, | %4
 .!tenuto!D,2 (E,>F, E,) z |!p! C2- C3/2(B,/4A,/4 ^G,2) | C2- C3/2(B,/4A,/4 D2) | (F4 D2) | %8
 (F4 D>)D | (C!>(!D E2 FG)!>)! | (G,A, _B,2-) B,!>!A, |!p! !tenuto!B,2 G,7/2 C/ | F,4 G,2- | %13
 G, z ^G,2 !fermata!z7/4!pp! c/4 | .!tenuto!B2 (A2 ^G2) | .!tenuto!F2 (E2 D2) | %16
 (C2 B,2 A,7/4)A,/4 | ^D, z (E,F,) (F,E,) |!p! (A,2 E,3) (A, | B,2 A,4) | (A,2 GE ^CA,) | %21
 A,2 (^CE) (ED) |!f! (D2 ^C2 A,2) | (D2 B,2 A,2) |!p! (^F2 E^C A,C) | ^G, z A,4- | A,2 A,2 z A,- | %27
 A,2 z!<(! (A, D2)!<)! | z!p! B,!>(! (FEFE)!>)! | (C^CD=C) (CB,) | (B,_B,) (B,A,) (A,G,) || %31
[K:F] z6 | z!p! (C, _D,3) ^C, | D,4- D,^D, | E,4- E,E, | F,6 |!>(! C,4!>)! F,2 |!p! (D,4 G,2) | %38
 C,4 (F,2 | B,4)!<(! A,2!<)! | (B,2 =B,2 C^C) | (DE) (^CD) (FG) | (^CD) (F^F) (FG-) | %43
 GG (FD) (D=B,) |!f! (A,B,) B,A, (DC) | B,CCB, (FE) | (DE F3 C) | (D2 C2 FA) |!f! (!>!G2 FC_A,F,) | %49
 (F=B, C2 _D,2) | (D,2 C,2) z (_A, | F2) (3(F,G,_A,-) (3A,!ff!(=B,C-) | z4!ff! (3(CEF) z2 (_AF) | %53
 z2 z2 z7/4!ff! _A/4 | .!tenuto![_DB]2 [C_A]2 (CC,) | .E2 _A2 CC, | (_A2 G2 C7/4)C/4 | %57
 =B, z C(!>!C C,2) | z7/4!ff! C/4 !>!F4 | z7/4 (_D/4 G4) | z7/4 (_E/4 A2-) A7/4c/4 | %61
 ^F7/4F/4 _E7/4A/4 F z3/4!f! B/4 | .!tenuto![_Ec]2 !>![DB]7/4(D/4 D,2) | ^F2 B7/4(D/4 D,2) | %64
 (B2 (A2) D7/4)D/4 | ^C z D7/4(D/4 D,2) | z7/4!pp! (=B,/4 D4) | z7/4 (C/4 E4) | z7/4 (D/4 G3) D | %69
!>(! (E2 D)!>)! z z!mp! (^G | =B2 A3) (^A | ^c2 =B3) (^B | d2) (^cAE^C) | (A^D E15/4) E/4 | %74
!f! F2!>(! E15/4 E/4!>)! | A2 (AE^C)A, | (^F,=F,) E,15/4 ^C/4 |!f! C7/4.C/4 E7/4[CA]/4 [CA]7/4C/4 | %78
 C7/4C/4 [EA]7/4[EA]/4 [EA]7/4[EA]/4 |!ff! [EA]2 z2 (6:4:6c/^G/A/^D/E/=B,/ | C z E, z !tenuto!A,2 | %81
 z2 F, z =B,2 | z2 ^C z ^G2 | D z =B2 F z | =B2 z2 =B, z | =B2 !fermata!B15/4!ff! c/4 || %86
[K:C] .!tenuto!B2 F15/4 E/4 | .!tenuto!F2 E15/4 D/4 | C2 F,2 E,7/4E,/4 | !>!C2 !>!F,2 E,7/4A,/4 | %90
 E2 ^D2 G,7/4C/4 | E2 ^D2 G,7/4C/4 | C2 B,15/4 C/4 | C2 B,3 E | C7/4^C/4 ^D3 E | %95
 C7/4^C/4 ^D2!ff! (=D2 | ^G2 A2 C2-) | (C2 B,2 A,2) |!p! ^D,2 (E,(F,)F,E,) | %99
 ^D, z!<(! (E,^F,)(F,E,)!<)! ||[K:D]!>(! (E,=F,)(F,(E,^D,)E,)!>)! |!p! (E,F,) (F,E,) (^D,E,) | %102
 (E,F,) (F,E,) (^D,E,) | (A,C GE CA,) | (A,C GE CA,) | (A,(B,) B,A, G,A,) || %106
[K:A] (A,B, B,A, G,A,) | (B,=C CB, ^A,B,) | (=CD CB,^A,B,) |!f! (CE FE CA,) | (A,D EDA,=F,) | %111
 (E,A,B,A, E,2) |!p!!p! (C2 B,G,E,G,) | A,2 z!p! A,- A,2 | z A,- A,2 z A,- | A,2 z A, (DC || %116
 DEDC) (ED | EFED) (AG | ABAG) (cB) | (dc) (dc)[K:treble] (ed) | (e^d)!f! (=fe de) || %121
 (cB^AB) (B=A |[K:alto] GA)!pp! =F4 | (ED =CB, B,2) | A,6 | [A,D]6 | A,6 |!<(! A,6 | %128
!f! (B,2!<)!!>(! G,4) | (F,3!>)! A, G,F,) |!pp! E,6 |!ppp! E,4 z2 |] %132
V:4
 x/ | x6 | x6 | x6 | x6 | x6 | x6 | x6 | x6 | C,6 | x6 | x6 | x6 | x6 | x6 | x6 | x6 | x6 | x6 | %19
 x6 | x6 | x6 | x6 | x6 | x6 | x6 | x6 | x6 | x6 | x6 | x6 ||[K:F] x6 | x6 | x6 | x6 | x6 | x6 | %37
 x6 | x6 | x6 | x6 | x6 | x6 | x6 | x6 | x6 | x6 | x6 | x6 | x6 | x6 | x6 | x10 | x6 | x6 | x6 | %56
 x6 | x6 | x6 | x6 | x6 | x6 | x6 | x6 | x6 | x6 | x6 | x6 | x6 | x6 | x6 | x6 | x6 | x6 | x6 | %75
 x6 | x6 | x6 | x6 | x6 | x6 | x6 | x6 | x6 | x6 | x6 ||[K:C] x6 | x6 | x6 | x6 | x6 | x6 | x6 | %93
 x6 | x6 | x6 | x6 | x6 | x6 | x6 ||[K:D] x6 | x6 | x6 | x6 | x6 | x6 ||[K:A] x6 | x6 | x6 | x6 | %110
 x6 | x6 | x6 | x6 | x6 | x6 || x6 | x6 | x6 | x4[K:treble] x2 | x6 || x6 |[K:alto] x6 | x6 | x6 | %125
 x6 | x6 | x6 | x6 | x6 | x6 | x6 |] %132
V:5
!f! A,,/ | .!tenuto!C,2 (!>!D,2 E,7/4)E,,/4 | .!tenuto!B,,2 (!>!^C,2 D,7/4)D,,/4 | %3
 F,,2 (G,,2 A,,>)A,, | .!tenuto!B,,2 !>![E,,B,,]3 z |!p! F,4 (D,>E, | F,4) G,>D | %7
 (C7/2 B,/4A,/4 ^G,2) | (C7/2 B,/4A,/4 ^G,>)G, |!f!!>(! (F,,2 G,,2 A,,2)!>)! | (_B,,2 C,2 D,2) | %11
!p! !tenuto!G,,2 !tenuto!C,7/2 F,,/ | G,,4 (C,2 | C,,>)D,, E,,2 !fermata!z7/4!pp! A,/4 | %14
 C7/4D/4 E15/4 E/4 | A,7/4B,/4 (^C2 D7/4)D/4 | (F,>^F, G,>)(G,, A,,7/4)A,,/4 | B,,>(B,, E,,3) z | %18
!p! (A,,2 ^C,3) (A,, | ^G,,2 A,,4) | (^C,2 E,3) C, | (^B,,^C, E,2 D,D,,) |!f! (E,,2 A,,2 ^C,2) | %23
!>(! (B,,2 ^C,2!>)! ^F,2) |!p! !tenuto!B,,2 E,3 z | E,, z (A,,^G,,A,,=G,,) | %26
 (F,,G,,A,,^G,, A,,!<(!=G,,) | (F,,!<)!E,,F,,E,,) (D,,^C,, | D,,_D,,)!>(! C,,3 (C,!>)! | %29
 C,,3) (C, C,,2-) | C,,C,- C,3 (C, ||[K:F] _D,6) | z2 z2[K:tenor] (E2 | G2 F2) (^F2 | %34
 A2!<(! G2) ^G2!<)! |!f! (B2!mp! AF CA,) |!>(! (^G,2 A,)!>)! z z A | (cA B3) z | (B^G A3) z | %39
 (A^F AG-)!<(! (G=F)!<)! |[K:bass] (G,4 A,2) | (B,4 A,2) | (B,2 C2 ^C2) | (D2 D,2) (G,,2 | %44
!f! C,,4) C,2 | C,,4!<(! (C,2!<)! | F,,2-) F,,A,,C,F, | F=B, CA,F,C, |!f! (E,,F,, (F,,)_A,,C,F,) | %49
 (_D,2 C,2) (F=B,) | (C_A,F,C,) (_D,_D,,) | (C,C,,) (_D,_D,,)!ff! (C,C,,) | %52
 (_D,,_D,) z2!ff! (D,_D) | z2 z2 z7/4!ff! F,,/4 | !tenuto!G,,2 _A,,15/4 C,/4 | %55
 _D,,2 =D,,15/4 _A,,/4 | (D,,2 _E,,2 F,,7/4)F,,/4 | G,, z C,15/4!ff! C,/4 | _D,,4- D,,7/4(_D,/4 | %59
 E,,4-) E,,7/4(_E,/4 | ^F,,4-) F,,7/4A,,/4 | _E,7/4C,/4 A,7/4^F,/4 _E z3/4!f! G,,/4 | %62
 A,,2 B,,15/4 D,/4 | _E,,2 =E,,15/4 B,,/4 | (E,,2 F,,2) G,,7/4G,,/4 | A,, z D,2 z7/4!pp! D,/4 | %66
 D,,4- D,,7/4(D,/4 | D,,4-) D,,7/4(D,/4 | (D,,4) G,,!<(!=B,,) | D,4!<)! F,2 | E,4- E,7/4(E,/4 | %71
 E,,4-) E,,7/4(E,/4 | E,,4) A,,2 | E,2- E,!<(!(^C,A,,E,,)!<)! |!f! ^G,,2!>(! A,,2 ^C,2!>)! | %75
 (^F,=F, E,A,^CE) | (A^D (3E^CA, (3(E,)^C,A,,) |!f! F,, z/ F,,/ ^F,, z z7/4 F,,/4 | %78
 F,,7/4F,,/4 ^F,,7/4^F,/4 F,7/4F,,/4 | .F,,2 z2 (6:4:6C/^G,/A,/^D,/E,/=B,,/ | %80
 ^F,,7/2 (=F,,/4^F,,/4 G,,3/2(F,,/4)G,,/4 | ^G,,7/2) (=G,,/4^G,,/4 A,,3/2)(G,,/4A,,/4 | %82
 B,,3/2)(G,,/4A,,/4 B,,3/2)(A,,/4B,,/4 =B,,3/2)(^A,,/4B,,/4 | %83
 D,3/2)(=B,,/4A,,/4 ^G,,3/2)(F,,/4E,,/4 D,,3/2)(B,,/4A,,/4 | %84
 (^G,,3/2)F,,/4E,,/4 D,,3/2)(=B,,/4A,,/4 G,,2-) | %85
 G,,3/2 (D,,/4E,,/4 F,,2) !fermata!E,,7/4!ff!A,,/4 ||[K:C] !tenuto!C,2 D,15/4 E,/4 | %87
 !tenuto!B,,2 ^C,15/4 D,/4 | !>!F,,2 G,,2 A,,7/4A,,/4 | !>!F,,2 !>!G,,2 A,,7/4A,,/4 | %90
 ^F,,2 B,,2 C,7/4C,/4 | ^F,,2 B,,2 C,7/4C,,/4 | D,,2 [G,,D,]15/4 C,,/4 | D,,2 G,,3 E,, | %94
 A,,3/2^A,,/4 B,,7/4(B,/ B,,7/4)E,,/4 | A,,7/4^A,,/4 B,,2!ff! C,,2- | C,,4 (D,,2 | %97
 ^D,,2 E,,2 F,,2) |!p! (^F,,>B,, E,,3) z | (F,,>B,, E,,2) z2 ||[K:A] z6 |!p! (A,,2 C,3) (A,, | %102
 G,,2 A,,4) | ((C,2 E,2)) C,2 | (^B,,C, E,3) C, | (D,2 F,2) (D,2 || C,2 D,2) (F,D,) | %107
 (^D,2 B,,2 D,2) | (D,2 ^D,3) B,, |!f! (E,,3 A,,C,E,) | (D,,3 =F,,A,,D,) | E,,6 |!p! [E,,D,]6 | %113
 (A,,G,,A,,=G,,) z2 | =F,,=G,, (A,,^G,,A,,=G,,) | (=F,,E,,F,,E,,) D,,2- || D,, A,,2- A,,2 F,- | %117
 F,3 B,- B,2- | B, E,2 (E E^E-) | E F2 =G2 ^G- | G A2!f! (A,2 A-) || A D,2 D2 A,,- | %122
 (A,,A,)!pp! (D,,=F,, A,,D,) | (=F,A, DE =FE) | E6 | ^E6 |!>(! (E2 ^D4)!>)! | (D2!<(! C3 A,)!<)! | %128
!f! (F,,2!>(! E,,4) |!p! A,,6-!>)! |!pp! A,,6 |!ppp! A,,4 z2 |] %132
V:6
 x/ | x6 | x6 | x6 | x6 | x6 | x6 | x6 | x6 | x6 | x6 | x6 | x6 | x6 | x6 | x6 | x6 | x6 | x6 | %19
 x6 | x6 | x6 | x6 | x6 | x6 | x6 | x6 | x6 | x6 | x6 | x6 ||[K:F] x6 | x4[K:tenor] x2 | x6 | x6 | %35
 x6 | x6 | x6 | x6 | x6 |[K:bass] x6 | x6 | x6 | x6 | x6 | x6 | x6 | x6 | x6 | x6 | x6 | x6 | x6 | %53
 x6 | x6 | x6 | x6 | x6 | x6 | x6 | x6 | x6 | x6 | x6 | x6 | x6 | x6 | x6 | x6 | x6 | x6 | x6 | %72
 x6 | x6 | x6 | x6 | x6 | x6 | x6 | x6 | x6 | x6 | x6 | x6 | x6 | x6 ||[K:C] x6 | x6 | x6 | x6 | %90
 x6 | x6 | x6 | x6 | x6 | x6 | x6 | x6 | x6 | x6 ||[K:A] x6 | x6 | x6 | x6 | x6 | x6 || x6 | x6 | %108
 x6 | x6 | x6 | x6 | x6 | C,2 z2 =F,,E,, | x6 | x6 || x6 | x6 | x6 | x6 | x6 || x6 | x6 | x6 | x6 | %125
 x6 | x6 | x6 | x6 | x6 | x6 | x6 |] %132

